svg/furkot/scott-de-jonge/boatramp.svg

<svg viewBox="0 0 512 512" xmlns="http://www.w3.org/2000/svg"><path d="m91.577 131.122c5.55 10.06 15.784 20.466 30.699 31.219s33.822 19.252 56.716 25.496l309.073 86.374 22.894-84.292-309.073-86.374 56.195-39.545-19.772-5.203-56.195 40.585-101.984-28.097-1.041 8.325c-.694 5.55-.173 13.008 1.561 22.374s5.377 19.078 10.927 29.138zm260.163 154.537 133.203 37.463 4.163-17.691-141.529-39.545c2.082 6.244 3.469 12.835 4.163 19.773zm-115.512-49.952-236.228-65.561v18.732l222.699 61.398c4.163-5.549 8.672-10.406 13.529-14.569z"/><path d="m510.959 406.374-235.187-64.52c.694 0 1.561.173 2.602.52s1.907.52 2.602.52c14.569 0 27.057-5.203 37.463-15.609s15.61-22.895 15.61-37.464-5.203-27.057-15.61-37.463-22.894-15.61-37.463-15.61-27.057 5.029-37.464 15.089c-10.406 10.059-15.61 22.721-15.61 37.984 0 22.2 10.06 38.158 30.179 47.87l-258.081-71.805 1.041 187.317c11.1 0 21.507-2.081 31.219-6.244 10.407-4.856 21.16-7.284 32.26-7.284s21.854 2.428 32.26 7.284c10.407 4.163 20.987 6.244 31.74 6.244s21.334-2.081 31.74-6.244c10.407-4.856 21.16-7.284 32.26-7.284s21.854 2.428 32.26 7.284c10.407 4.163 20.987 6.244 31.74 6.244s21.334-2.081 31.74-6.244c10.407-4.856 21.16-7.284 32.26-7.284s21.854 2.428 32.26 7.284c9.713 4.163 20.119 6.244 31.22 6.244s21.507-2.081 31.22-6.244c10.406-4.856 21.159-7.284 32.26-7.284 11.099 0 22.199 2.428 33.3 7.284 9.713 4.163 20.119 6.244 31.22 6.244zm-252.878-117.073c0-6.591 2.255-11.968 6.765-16.13 4.509-4.163 9.886-6.244 16.13-6.244s11.621 2.081 16.13 6.244 6.764 9.539 6.764 16.13-2.255 12.141-6.764 16.65-9.886 6.764-16.13 6.764-11.621-2.255-16.13-6.764-6.765-10.059-6.765-16.65z"/></svg>

<svg xmlns="http://www.w3.org/2000/svg" viewBox="0 0 512 512"><path d="M91.577 131.122C97.127 141.182 107.361 151.588 122.276 162.341S156.098 181.593 178.992 187.837L488.065 274.211 510.959 189.919 201.886 103.545 258.081 64 238.309 58.797 182.114 99.382 80.13 71.285 79.089 79.61C78.395 85.16 78.916 92.618 80.65 101.984S86.027 121.062 91.577 131.122ZM351.74 285.659L484.943 323.122 489.106 305.431 347.577 265.886C349.659 272.13 351.046 278.721 351.74 285.659ZM236.228 235.707L0 170.146V188.878L222.699 250.276C226.862 244.727 231.371 239.87 236.228 235.707Z"/><path d="M510.959 406.374L275.772 341.854C276.466 341.854 277.333 342.027 278.374 342.374S280.281 342.894 280.976 342.894C295.545 342.894 308.033 337.691 318.439 327.285S334.049 304.39 334.049 289.821 328.846 262.764 318.439 252.358 295.545 236.748 280.976 236.748 253.919 241.777 243.512 251.837C233.106 261.896 227.902 274.558 227.902 289.821 227.902 312.021 237.962 327.979 258.081 337.691L0 265.886 1.041 453.203C12.141 453.203 22.548 451.122 32.26 446.959 42.667 442.103 53.42 439.675 64.52 439.675S86.374 442.103 96.78 446.959C107.187 451.122 117.767 453.203 128.52 453.203S149.854 451.122 160.26 446.959C170.667 442.103 181.42 439.675 192.52 439.675S214.374 442.103 224.78 446.959C235.187 451.122 245.767 453.203 256.52 453.203S277.854 451.122 288.26 446.959C298.667 442.103 309.42 439.675 320.52 439.675S342.374 442.103 352.78 446.959C362.493 451.122 372.899 453.203 384 453.203S405.507 451.122 415.22 446.959C425.626 442.103 436.379 439.675 447.48 439.675 458.579 439.675 469.679 442.103 480.78 446.959 490.493 451.122 500.899 453.203 512 453.203L510.959 406.374ZM258.081 289.301C258.081 282.71 260.336 277.333 264.846 273.171 269.355 269.008 274.732 266.927 280.976 266.927S292.597 269.008 297.106 273.171 303.87 282.71 303.87 289.301 301.615 301.442 297.106 305.951 287.22 312.715 280.976 312.715 269.355 310.46 264.846 305.951 258.081 295.892 258.081 289.301Z"/></svg>
